X:1
T:Albany, 11.10.11.10
T:J. Albert Jeffrey, 1886
T:Albany, 11.10.11.10
T:Public Domain
C:J. Albert Jeffrey, 1886
Z:Public Domain
%%score ( 1 2 ) ( 3 4 )
L:1/8
M:4/4
K:C
V:1 treble 
V:2 treble 
V:3 bass 
V:4 bass 
V:1
 [EG]2 [EG]>[EG] [FG]3 [FA] | [EG][Ec][EB]E [FA]2 [FG]2 | [EG]2 [EA]>[EA] [EB]2 (EC) | %3
 [B,d][DB] [^FB]>[FA] G4 | [EA]2 [EA]>[EA] [Dd]3 [DA] | [EA][E^G][EA][EB] [Ed]2 [Ec]2 | %6
 [Fc]2 [^Fc]>[Fc] [Gc]GEG | [FG]2 [Fd]2 [Ec]4 |] %8
V:2
 x8 | x3 E x4 | x6 c2 | x4 G4 | x8 | x8 | x5 GEG | x8 |] %8
V:3
 [C,G,]2 [^C,A,]>[C,^A,] [D,B,]3 [G,,B,] | [G,C][C,C][E,C][G,C] [G,B,]2 [G,B,]2 | %2
 [C,C]2 [C,A,]>[C,A,] [B,,G,]2 [A,,A,]2 | [D,G,][D,B,] [D,D]>[D,C] [G,B,]4 | %4
 [G,C]2 [G,^C]>[G,C] [F,D]3 [F,D] | [E,B,][E,B,][^F,B,][^G,B,] [G,B,]2 A,2 | %6
 [A,C]2 [_A,C]>[A,C] [G,E]G,E,G, | [G,B,]2 [G,B,]2 [C,C]4 |] %8
V:4
 x8 | x8 | x8 | x8 | x8 | x6 A,2 | x5 G,E,G, | x8 |] %8

